X: 86
T: Sister's Jig
P: piffero primo b0063
O: safd 008
%R: jig
F: http://ancients.sudburymuster.org/mus/acn/pdf/fyf09F.pdf
Z: 2020 John Chambers <jc:trillian.mit.edu>
M: 6/8
L: 1/8
K: G
d |\
B2d (gfg | agf g2)d | B2d (gfg) | a2A A2d |\
B2d (gfg | agf g2)d | Bdd Add | B2G G2 :|
|: z |\
B2d d2B | (c2e) "^>"e3 | B2d (gfg) | a2A "^"A3 |\
B2d d2B | c2e e3 | Bdd Add | B2G G2 :|


